icons/eye-closed-outlined-12px.svg

<svg width="12" height="12" viewBox="0 0 12 12" fill="none" xmlns="http://www.w3.org/2000/svg"><path d="M2.3457 1.89645C2.54097 1.70118 2.85747 1.70118 3.05273 1.89645L10.5527 9.39645L10.6172 9.47457C10.7454 9.66865 10.7236 9.93261 10.5527 10.1035C10.3819 10.2743 10.1179 10.2961 9.92383 10.1679L9.8457 10.1035L8.88574 9.14352C8.13075 9.60575 7.17618 9.92556 5.99121 9.90621C3.99053 9.87349 2.66576 8.94647 1.85254 8.03219C1.44872 7.57817 1.17034 7.12707 0.992188 6.78902C0.902904 6.6196 0.838091 6.4771 0.794922 6.37496C0.773319 6.32385 0.757346 6.28244 0.746094 6.25289C0.740489 6.23817 0.7356 6.22652 0.732422 6.21774C0.730861 6.21342 0.729506 6.2098 0.728516 6.20699C0.728021 6.20559 0.72789 6.2041 0.727539 6.20309L0.726562 6.20211V6.20113L0.672852 6.04586L0.72168 5.88863H0.722656V5.88668L0.723633 5.88473C0.724144 5.88313 0.724833 5.88119 0.725586 5.87887C0.72717 5.87399 0.728777 5.86725 0.731445 5.85934C0.73688 5.84323 0.744805 5.82065 0.754883 5.79293C0.775192 5.7371 0.805885 5.65843 0.84668 5.56246C0.928144 5.37084 1.05271 5.10643 1.23047 4.80856C1.55306 4.26801 2.05917 3.60396 2.80273 3.06051L2.3457 2.60348L2.28125 2.52535C2.15309 2.33127 2.17484 2.06731 2.3457 1.89645ZM3.51953 3.77731C2.84608 4.2327 2.3852 4.82637 2.08984 5.32125C1.93903 5.57398 1.83341 5.7969 1.7666 5.95406C1.75492 5.98154 1.74467 6.00706 1.73535 6.03024C1.76857 6.10596 1.81533 6.20627 1.87695 6.3232C2.02667 6.60725 2.26144 6.98689 2.59961 7.36715C3.27101 8.12202 4.34703 8.87905 6.00781 8.90621C6.88225 8.92044 7.58658 8.71513 8.1543 8.41207L7.04688 7.30465C6.75717 7.52753 6.39299 7.6611 5.99902 7.6611C5.07319 7.66099 4.29883 6.92687 4.29883 5.99313C4.29883 5.59239 4.44388 5.22532 4.68164 4.93942L3.51953 3.77731ZM5.99902 2.04977C8.03362 2.04977 9.36433 3.01556 10.1719 3.97164C10.5724 4.44589 10.8459 4.91833 11.0195 5.27242C11.1066 5.45006 11.1693 5.60003 11.2109 5.70699C11.2317 5.76024 11.2471 5.80316 11.2578 5.83395C11.2631 5.84926 11.2675 5.86195 11.2705 5.87106L11.2754 5.8857L11.2764 5.88766C11.2764 5.88791 11.276 5.88863 10.7988 6.03805L11.2734 6.19625V6.19723C11.2732 6.19794 11.2728 6.1992 11.2725 6.20016C11.2718 6.20203 11.2705 6.20423 11.2695 6.20699C11.2676 6.21266 11.265 6.22019 11.2617 6.22945C11.2549 6.24837 11.2451 6.27492 11.2324 6.30758C11.207 6.37295 11.1694 6.46469 11.1182 6.57613C11.0158 6.79875 10.8585 7.10353 10.6348 7.43844L10.5703 7.51656C10.405 7.68032 10.1414 7.71041 9.94043 7.57613C9.71123 7.42263 9.64946 7.11223 9.80273 6.88277C9.99201 6.59941 10.1253 6.34225 10.21 6.15817C10.2317 6.11087 10.2483 6.06775 10.2637 6.03121C10.231 5.94999 10.1848 5.84086 10.1221 5.71285C9.97507 5.41306 9.74294 5.01363 9.40723 4.61617C8.74166 3.82838 7.67179 3.04977 5.99902 3.04977C5.80863 3.04977 5.6268 3.06029 5.45312 3.07906C5.17867 3.10874 4.93216 2.91011 4.90234 2.6357C4.87266 2.36116 5.07116 2.11461 5.3457 2.08492C5.55568 2.06223 5.77337 2.04977 5.99902 2.04977ZM11.3242 6.04293L11.2734 6.19527L10.7988 6.03805L11.2764 5.88863L11.3242 6.04293ZM5.29883 5.99313C5.29883 6.34903 5.59957 6.66099 5.99902 6.6611C6.11752 6.6611 6.22655 6.62966 6.32324 6.58102L5.39551 5.65328C5.33328 5.75344 5.29883 5.86979 5.29883 5.99313Z" fill="currentColor"/></svg>

<svg xmlns="http://www.w3.org/2000/svg" width="12" height="12" fill="currentColor"><path fill="currentColor" d="M2.346 1.896a.5.5 0 0 1 .707 0l7.5 7.5a.5.5 0 1 1-.707.707l-.96-.96c-.755.463-1.71.783-2.895.763-2-.033-3.325-.96-4.138-1.874A6.3 6.3 0 0 1 .795 6.375l-.049-.122-.014-.035-.003-.011-.001-.004H.727V6.2l-.054-.155.049-.157v-.002l.002-.002.002-.006.005-.02.024-.066a6.3 6.3 0 0 1 .476-.984A5.9 5.9 0 0 1 2.802 3.06l-.457-.458a.5.5 0 0 1 0-.707M3.52 3.777a4.9 4.9 0 0 0-1.43 1.544 5 5 0 0 0-.323.633l-.032.076q.05.116.142.293c.15.284.384.664.723 1.044.671.755 1.747 1.512 3.408 1.54.874.013 1.579-.192 2.146-.495L7.047 7.305c-.29.223-.654.356-1.048.356-.926 0-1.7-.734-1.7-1.668 0-.4.145-.768.383-1.054zM5.999 2.05c2.035 0 3.365.966 4.173 1.922a6.4 6.4 0 0 1 1.039 1.735l.047.127.013.037.004.015.001.002-.477.15.474.158V6.2l-.003.007a1 1 0 0 1-.038.1 6.3 6.3 0 0 1-.598 1.13.5.5 0 0 1-.831-.554c.189-.284.322-.54.407-.725q.032-.071.054-.127a5.4 5.4 0 0 0-.856-1.415c-.667-.788-1.737-1.566-3.41-1.566q-.285 0-.546.03a.5.5 0 0 1-.107-.995q.314-.035.653-.035m5.325 3.993-.05.152-.475-.157.477-.15zM5.3 5.993c0 .356.3.668.7.668a.7.7 0 0 0 .324-.08l-.927-.928a.64.64 0 0 0-.097.34"/></svg>
